assets/luts/vintage2.cube
LUT_3D_SIZE 6
0.121569 0.103857 0.106110
0.219482 0.103816 0.104951
0.437410 0.102306 0.104338
0.696194 0.101391 0.104023
0.927192 0.100807 0.104576
1.053498 0.102039 0.104644
0.117746 0.180016 0.106342
0.218572 0.174598 0.106342
0.437410 0.187063 0.106342
0.696194 0.205595 0.106342
0.927192 0.212474 0.106342
1.053498 0.202331 0.106342
0.113985 0.360353 0.106342
0.236302 0.360353 0.106342
0.433556 0.353092 0.106342
0.696194 0.402903 0.106342
0.927192 0.418070 0.106342
1.053498 0.395349 0.106342
0.113230 0.599150 0.106342
0.254453 0.599150 0.106342
0.481249 0.599150 0.106342
0.693901 0.606790 0.106342
0.927192 0.631679 0.106342
1.053498 0.597712 0.106342
0.114020 0.836043 0.106342
0.261240 0.836043 0.106342
0.499534 0.836043 0.106342
0.711844 0.836043 0.106342
0.930080 0.853557 0.106342
1.053498 0.802165 0.106342
0.114854 1.103524 0.104479
0.261991 1.103524 0.103355
0.485019 1.103524 0.102883
0.683113 1.103524 0.102013
0.874176 1.103506 0.102487
1.053748 1.105209 0.102644
0.097299 -0.505233 0.190713
0.216148 -0.505198 0.184996
0.437001 -0.505200 0.188124
0.704520 -0.505200 0.210497
0.936885 -0.505200 0.219008
1.053637 -0.505200 0.207058
0.121569 0.178781 0.185286
0.218430 0.180114 0.185496
0.437410 0.177055 0.182892
0.696194 0.173731 0.181191
0.927192 0.172994 0.182452
1.053498 0.176937 0.183941
0.121569 0.360353 0.196566
0.212034 0.360353 0.184694
0.434851 0.356972 0.186705
0.696194 0.396379 0.186705
0.927192 0.406911 0.186705
1.053498 0.387118 0.186705
0.121569 0.599150 0.211278
0.207762 0.599150 0.180674
0.472471 0.599150 0.186705
0.694681 0.608241 0.186705
0.927192 0.629699 0.186705
1.053498 0.593884 0.186705
0.121569 0.836043 0.217583
0.212034 0.836043 0.183431
0.487874 0.836042 0.186705
0.707899 0.836042 0.186705
0.930080 0.854225 0.186705
1.053498 0.800584 0.186705
0.121300 1.103524 0.203813
0.217016 1.103524 0.171006
0.473354 1.103524 0.166241
0.678281 1.103524 0.157442
0.871164 1.103492 0.157775
1.053764 1.105224 0.163660
0.084114 -0.505313 0.367717
0.233056 -0.505201 0.369981
0.437598 -0.505200 0.362800
0.705582 -0.505200 0.411037
0.937168 -0.505200 0.425849
1.053645 -0.505200 0.401391
0.121569 0.191833 0.359764
0.208841 0.175660 0.359764
0.436023 0.180016 0.356453
0.696194 0.180016 0.392653
0.927192 0.180016 0.404009
1.053498 0.180016 0.384420
0.121569 0.358499 0.357188
0.219482 0.359636 0.358336
0.437410 0.360397 0.359463
0.696194 0.359876 0.358481
0.927192 0.361592 0.360378
1.053498 0.364222 0.360901
0.121569 0.599150 0.392875
0.219482 0.599150 0.387729
0.440959 0.599150 0.358582
0.696202 0.608285 0.359764
0.927192 0.611777 0.359764
1.053498 0.583875 0.359764
0.121569 0.836043 0.407556
0.219482 0.836043 0.399083
0.451758 0.836043 0.359182
0.698159 0.836043 0.359764
0.930983 0.853661 0.359764
1.053498 0.796863 0.359764
0.120923 1.103524 0.377282
0.210485 1.103524 0.366405
0.458823 1.103524 0.345286
0.673304 1.103524 0.339366
0.869226 1.103489 0.340037
1.053761 1.105259 0.345711
0.082781 -0.505329 0.593113
0.254466 -0.505201 0.594242
0.484906 -0.505200 0.593544
0.698806 -0.505200 0.598584
0.933789 -0.505200 0.621138
1.053604 -0.505200 0.584525
0.121569 0.205447 0.576311
0.203508 0.170419 0.576311
0.470490 0.180016 0.576311
0.694707 0.180016 0.587727
0.927192 0.180016 0.606676
1.053498 0.180016 0.575974
0.121569 0.395443 0.576311
0.219482 0.389135 0.576311
0.439101 0.358820 0.576311
0.695787 0.360353 0.586679
0.927192 0.360353 0.591161
1.053498 0.360353 0.563801
0.121569 0.597399 0.577084
0.219482 0.597479 0.578157
0.437410 0.598906 0.577869
0.696194 0.600306 0.576454
0.927192 0.605165 0.578370
1.053498 0.607710 0.579847
0.121569 0.836043 0.601276
0.219482 0.836043 0.597219
0.437410 0.836043 0.577794
0.704625 0.836043 0.577782
0.929105 0.846580 0.576311
1.053498 0.805530 0.576311
0.120746 1.103524 0.554777
0.208129 1.103524 0.550449
0.429566 1.103524 0.524924
0.712549 1.103524 0.563886
0.885906 1.103498 0.564126
1.053655 1.104743 0.571113
0.085121 -0.505325 0.803789
0.260787 -0.505199 0.803879
0.499638 -0.505200 0.804027
0.704960 -0.505200 0.799783
0.929818 -0.505200 0.815370
1.053522 -0.505200 0.765358
0.121569 0.210360 0.782933
0.207762 0.170688 0.782933
0.482945 0.180016 0.782933
0.700103 0.180016 0.782933
0.929105 0.180016 0.807505
1.053498 0.180016 0.762358
0.121569 0.407562 0.782933
0.219482 0.399141 0.782933
0.448690 0.360373 0.782933
0.691308 0.360353 0.782933
0.929105 0.360353 0.803660
1.053498 0.360353 0.757118
0.121569 0.615608 0.782933
0.219482 0.612472 0.782933
0.437410 0.595453 0.782933
0.701924 0.601654 0.782933
0.928139 0.599150 0.793538
1.053498 0.599150 0.758007
0.121569 0.837863 0.793861
0.219482 0.839801 0.794877
0.437410 0.838428 0.792530
0.696194 0.837622 0.787040
0.927192 0.836922 0.782750
1.053498 0.839069 0.785063
0.120855 1.103524 0.743374
0.209872 1.103524 0.742201
0.432542 1.103524 0.730658
0.699138 1.103524 0.730173
0.931609 1.103503 0.773150
1.053513 1.103752 0.778911
0.087432 -0.505327 0.965345
0.253444 -0.505201 0.965354
0.481517 -0.505200 0.965347
0.680894 -0.505200 0.964408
0.872135 -0.505200 0.961114
1.053885 -0.505200 0.966995
0.121569 0.204809 0.950721
0.214162 0.176011 0.950721
0.472259 0.180016 0.950721
0.684762 0.180016 0.950721
0.876969 0.180016 0.950980
1.054050 0.180016 0.957436
0.121569 0.395184 0.950721
0.219482 0.385525 0.950721
0.458438 0.363750 0.950721
0.677810 0.360353 0.950721
0.876039 0.360353 0.951082
1.054037 0.360353 0.956688
0.121569 0.596266 0.950721
0.219482 0.590195 0.950721
0.437410 0.571598 0.950721
0.711471 0.605515 0.950720
0.890184 0.599150 0.951502
1.053790 0.599150 0.953893
0.121569 0.799777 0.950721
0.219482 0.796750 0.950721
0.437410 0.791388 0.950721
0.696194 0.798409 0.950721
0.928874 0.837942 0.951519
1.053537 0.836043 0.951112
0.121569 1.030506 0.957476
0.219482 1.030632 0.957494
0.437410 1.030535 0.955982
0.696194 1.029771 0.952659
0.927474 1.028296 0.950721
1.053498 1.027948 0.950721
