assets/luts/vintage2.cube
LUT_3D_SIZE 16
0.121569 0.103857 0.106110
0.127482 0.103816 0.106036
0.164372 0.103857 0.106110
0.219482 0.103816 0.104951
0.283855 0.103388 0.105421
0.356577 0.103013 0.104146
0.437410 0.102306 0.104338
0.521982 0.101939 0.104146
0.609733 0.101634 0.104047
0.696194 0.101391 0.104023
0.779194 0.101634 0.104047
0.855520 0.101391 0.104023
0.927192 0.100807 0.104576
0.991433 0.100961 0.104644
0.994690 0.101878 0.104576
1.053498 0.102039 0.104644
0.121507 0.108095 0.106342
0.127382 0.107967 0.106342
0.164312 0.108095 0.106342
0.219374 0.109057 0.106342
0.283855 0.108167 0.106342
0.356577 0.108469 0.106342
0.437410 0.109257 0.106342
0.521982 0.109567 0.106342
0.609733 0.109952 0.106342
0.696194 0.110252 0.106342
0.779194 0.111042 0.106342
0.855520 0.110252 0.106342
0.927192 0.111254 0.106342
0.991433 0.110936 0.106342
0.994690 0.110156 0.106342
1.053498 0.109840 0.106342
0.120167 0.136836 0.106342
0.127646 0.136818 0.106342
0.163016 0.132431 0.106342
0.218581 0.133511 0.106342
0.283855 0.136546 0.106342
0.356577 0.136256 0.106342
0.437410 0.139848 0.106342
0.521982 0.142849 0.106342
0.609733 0.146168 0.106342
0.696194 0.149027 0.106342
0.779194 0.150551 0.106342
0.855520 0.152298 0.106342
0.927192 0.151395 0.106342
0.991433 0.150544 0.106342
0.994690 0.149204 0.106342
1.053498 0.147255 0.106342
0.117746 0.180016 0.106342
0.125432 0.180016 0.106342
0.168238 0.180016 0.106342
0.218572 0.174598 0.106342
0.282806 0.176259 0.106342
0.356577 0.181425 0.106342
0.437410 0.187063 0.106342
0.521982 0.193227 0.106342
0.609733 0.199913 0.106342
0.696194 0.205595 0.106342
0.779194 0.210590 0.106342
0.855520 0.211983 0.106342
0.927192 0.212474 0.106342
0.991433 0.210864 0.106342
0.994690 0.206084 0.106342
1.053498 0.202331 0.106342
0.115980 0.232678 0.106342
0.123828 0.232678 0.106342
0.167603 0.232678 0.106342
0.228713 0.231601 0.106342
0.281779 0.223721 0.106342
0.355537 0.230934 0.106342
0.437410 0.241694 0.106342
0.521982 0.250970 0.106342
0.609733 0.260816 0.106342
0.696194 0.269161 0.106342
0.779194 0.274423 0.106342
0.855520 0.278564 0.106342
0.927192 0.278225 0.106342
0.991433 0.275942 0.106342
0.994690 0.269863 0.106342
1.053498 0.264437 0.106342
0.114784 0.293025 0.106342
0.123051 0.293025 0.106342
0.168605 0.293025 0.106342
0.232206 0.293025 0.106342
0.296755 0.293402 0.106342
0.353520 0.284784 0.106342
0.436817 0.298568 0.106342
0.521982 0.311733 0.106342
0.609733 0.324634 0.106342
0.696194 0.335432 0.106342
0.779194 0.343158 0.106342
0.855520 0.346738 0.106342
0.927192 0.347643 0.106342
0.991433 0.344742 0.106342
0.994690 0.336336 0.106342
1.053498 0.329291 0.106342
0.113985 0.360353 0.106342
0.122913 0.360353 0.106342
0.169986 0.360353 0.106342
0.236302 0.360353 0.106342
0.305867 0.361268 0.106342
0.374351 0.358628 0.106342
0.433556 0.353092 0.106342
0.521362 0.372940 0.106342
0.609733 0.389723 0.106342
0.696194 0.402903 0.106342
0.779194 0.413073 0.106342
0.855520 0.417089 0.106342
0.927192 0.418070 0.106342
0.991433 0.415602 0.106342
0.994690 0.403889 0.106342
1.053498 0.395349 0.106342
0.113489 0.434856 0.106342
0.123162 0.434856 0.106342
0.173827 0.434856 0.106342
0.240759 0.434856 0.106342
0.314132 0.434909 0.106342
0.385202 0.435385 0.106342
0.454718 0.433878 0.106342
0.518041 0.431350 0.106342
0.609082 0.454885 0.106342
0.696194 0.471367 0.106342
0.778583 0.482960 0.106342
0.855520 0.486397 0.106342
0.927192 0.489544 0.106342
0.991433 0.484361 0.106342
0.994690 0.472526 0.106342
1.053498 0.462310 0.106342
0.113259 0.515854 0.106342
0.123677 0.515854 0.106342
0.176846 0.515854 0.106342
0.248632 0.515854 0.106342
0.324041 0.515854 0.106342
0.397911 0.515124 0.106342
0.469389 0.515854 0.106342
0.538397 0.516100 0.106342
0.606347 0.517691 0.106342
0.695676 0.539665 0.106342
0.777794 0.554422 0.106342
0.856967 0.560499 0.106342
0.927192 0.559515 0.106342
0.991433 0.555614 0.106342
0.994690 0.541671 0.106342
1.053498 0.529790 0.106342
0.113230 0.599150 0.106342
0.124280 0.599150 0.106342
0.181146 0.599150 0.106342
0.254453 0.599150 0.106342
0.330073 0.599150 0.106342
0.407735 0.599150 0.106342
0.481249 0.599150 0.106342
0.551960 0.599150 0.106342
0.621351 0.600764 0.106342
0.693901 0.606790 0.106342
0.778997 0.623358 0.106342
0.855187 0.631357 0.106342
0.927192 0.631679 0.106342
0.991433 0.627203 0.106342
0.994690 0.611059 0.106342
1.053498 0.597712 0.106342
0.113389 0.683053 0.106342
0.124936 0.683053 0.106342
0.183451 0.683053 0.106342
0.259277 0.683053 0.106342
0.338394 0.683053 0.106342
0.416402 0.683053 0.106342
0.491297 0.683053 0.106342
0.563399 0.683053 0.106342
0.632672 0.683053 0.106342
0.701800 0.685177 0.106342
0.778626 0.695748 0.106342
0.857250 0.703663 0.106342
0.927192 0.704050 0.106342
0.991433 0.697964 0.106342
0.994690 0.680676 0.106342
1.053498 0.665778 0.106342
0.113670 0.763517 0.106342
0.125543 0.763517 0.106342
0.185854 0.763517 0.106342
0.262991 0.763517 0.106342
0.342012 0.763517 0.106342
0.422083 0.763517 0.106342
0.497844 0.763517 0.106342
0.570946 0.763517 0.106342
0.641171 0.763517 0.106342
0.709169 0.763517 0.106342
0.775386 0.765461 0.106342
0.858768 0.778999 0.106342
0.927192 0.776391 0.106342
0.991433 0.770956 0.106342
0.994690 0.750277 0.106342
1.053498 0.734140 0.106342
0.114020 0.836043 0.106342
0.125905 0.836043 0.106342
0.186210 0.836043 0.106342
0.261240 0.836043 0.106342
0.344772 0.836043 0.106342
0.423108 0.836043 0.106342
0.499534 0.836043 0.106342
0.572939 0.836043 0.106342
0.643590 0.836043 0.106342
0.711844 0.836043 0.106342
0.777719 0.836043 0.106342
0.846020 0.837942 0.106342
0.930080 0.853557 0.106342
0.992458 0.843545 0.106342
0.994690 0.819927 0.106342
1.053498 0.802165 0.106342
0.114420 0.900721 0.106342
0.126046 0.900721 0.106342
0.186613 0.900721 0.106342
0.260319 0.900721 0.106342
0.340743 0.900721 0.106342
0.420957 0.900721 0.106342
0.496619 0.900721 0.106342
0.569845 0.900721 0.106342
0.640181 0.900721 0.106342
0.708181 0.900721 0.106342
0.775404 0.900721 0.106342
0.840491 0.900721 0.106342
0.906242 0.902712 0.106342
0.997074 0.920867 0.106342
0.995606 0.892221 0.106342
1.053498 0.871219 0.106342
0.114753 0.940814 0.106342
0.125903 0.940814 0.106342
0.181545 0.940814 0.106342
0.258096 0.940814 0.106342
0.336111 0.940814 0.106342
0.413356 0.940814 0.106342
0.489088 0.940814 0.106342
0.561446 0.940814 0.106342
0.631096 0.940814 0.106342
0.698246 0.940814 0.106342
0.764450 0.940814 0.106342
0.826815 0.939855 0.106342
0.891098 0.940984 0.106342
0.972504 0.946495 0.106342
0.998625 0.954244 0.106342
1.053634 0.933196 0.106342
0.114854 1.103524 0.104479
0.127809 1.103524 0.104437
0.185938 1.103524 0.104479
0.261991 1.103524 0.103355
0.338069 1.103524 0.102883
0.413295 1.103524 0.102552
0.485019 1.103524 0.102883
0.553385 1.103524 0.102552
0.619157 1.103524 0.102255
0.683113 1.103524 0.102013
0.745920 1.103524 0.102255
0.810020 1.103524 0.102013
0.874176 1.103506 0.102487
0.947813 1.103532 0.101574
0.994133 1.104085 0.102487
1.053748 1.105209 0.102644
0.120990 -0.505200 0.113793
0.123977 -0.505200 0.111943
0.158371 -0.505200 0.100725
0.211855 -0.505200 0.091528
0.277272 -0.505200 0.087838
0.352371 -0.505200 0.087028
0.436101 -0.505200 0.086800
0.523879 -0.505200 0.088067
0.614869 -0.505200 0.089931
0.704156 -0.505200 0.091757
0.788087 -0.505200 0.094126
0.867211 -0.505200 0.095986
0.935853 -0.505200 0.094862
0.998093 -0.505200 0.096099
0.996729 -0.505200 0.093801
1.053634 -0.505200 0.092927
0.121569 0.108259 0.114723
0.127482 0.108259 0.114559
0.164372 0.107168 0.112513
0.219482 0.106082 0.112343
0.283855 0.104808 0.110799
0.356577 0.104314 0.109856
0.437410 0.102641 0.108606
0.521983 0.101088 0.107665
0.609733 0.099779 0.107040
0.696194 0.098872 0.106757
0.779194 0.097652 0.105952
0.855520 0.097812 0.106757
0.927192 0.098747 0.107813
0.991433 0.099435 0.108186
0.994690 0.100888 0.108914
1.053498 0.101589 0.109282
0.121187 0.136836 0.115895
0.126626 0.136836 0.114897
0.163998 0.133529 0.114785
0.219736 0.134633 0.114897
0.283855 0.137814 0.115080
0.356577 0.136843 0.115080
0.437410 0.140008 0.115080
0.521983 0.142343 0.115080
0.609733 0.144922 0.115080
0.696194 0.147146 0.115080
0.779194 0.149298 0.115080
0.855520 0.150424 0.115080
0.927192 0.150491 0.115080
0.991433 0.148935 0.115080
0.994690 0.147213 0.115080
1.053498 0.145651 0.115080
0.120710 0.180016 0.117315
0.123915 0.180016 0.114654
0.167881 0.180016 0.115089
0.217124 0.174598 0.114654
0.282806 0.177471 0.115080
0.356577 0.182170 0.115080
0.437410 0.187185 0.115080
0.521983 0.192926 0.115080
0.609733 0.199143 0.115080
0.696194 0.204406 0.115080
0.779194 0.207684 0.115080
0.855520 0.209742 0.115080
0.927192 0.211151 0.115080
0.991433 0.208754 0.115080
0.994690 0.204773 0.115080
1.053498 0.201257 0.115080
0.120811 0.232678 0.118995
0.121461 0.232678 0.114381
0.167992 0.232678 0.116766
0.226449 0.231601 0.115489
0.281779 0.224893 0.115080
0.355537 0.232919 0.115080
0.437410 0.241819 0.115080
0.521983 0.250855 0.115080
0.609733 0.260336 0.115080
0.696194 0.268415 0.115080
0.779194 0.273933 0.115080
0.855520 0.275729 0.115080
0.927192 0.278328 0.115080
0.991433 0.276217 0.115080
0.994690 0.268915 0.115080
1.053498 0.263665 0.115080
0.121284 0.293025 0.120753
0.119498 0.293025 0.114070
0.166271 0.293025 0.115189
0.229875 0.293025 0.115180
0.297839 0.291529 0.115080
0.353520 0.284801 0.115080
0.436871 0.298807 0.115080
0.521983 0.311767 0.115080
0.609733 0.324374 0.115080
0.696194 0.334911 0.115080
0.779194 0.342913 0.115080
0.855520 0.346205 0.115080
0.927192 0.346966 0.115080
0.991433 0.344162 0.115080
0.994690 0.335678 0.115080
1.053498 0.328731 0.115080
0.121569 0.360353 0.122092
0.117816 0.360353 0.113717
0.168701 0.360353 0.116536
0.234619 0.360353 0.113717
0.304994 0.360668 0.115080
0.372307 0.358731 0.115080
0.433720 0.353516 0.115080
0.521359 0.373063 0.115080
0.609733 0.389654 0.115080
0.696194 0.402663 0.115080
0.779194 0.413000 0.115080
0.855520 0.415781 0.115080
0.927192 0.416675 0.115080
0.991433 0.414206 0.115080
0.994690 0.403480 0.115080
1.053498 0.394912 0.115080
0.121569 0.434856 0.123020
0.116375 0.434856 0.113419
0.170889 0.434856 0.116350
0.239590 0.434856 0.115631
0.312791 0.435001 0.115080
0.384260 0.434692 0.115080
0.454403 0.433978 0.115080
0.518127 0.431660 0.115080
0.609096 0.454922 0.115080
0.696194 0.471239 0.115080
0.778599 0.482004 0.115080
0.855520 0.488245 0.115080
0.927192 0.488096 0.115080
0.991433 0.484001 0.115080
0.994690 0.472088 0.115080
1.053498 0.461961 0.115080
0.121569 0.515854 0.123826
0.115228 0.515854 0.113178
0.174121 0.515854 0.114943
0.244835 0.515854 0.115390
0.320442 0.515854 0.115080
0.396625 0.515122 0.115080
0.468877 0.515854 0.115080
0.538131 0.516114 0.115080
0.606438 0.517964 0.115080
0.695613 0.539605 0.115080
0.778817 0.553707 0.115080
0.856897 0.560448 0.115080
0.927192 0.560053 0.115080
0.991433 0.557320 0.115080
0.994690 0.541252 0.115080
1.053498 0.529551 0.115080
0.121569 0.599150 0.124392
0.114512 0.599150 0.113041
0.176279 0.599150 0.115497
0.251519 0.599150 0.115251
0.329425 0.599150 0.115080
0.407249 0.599150 0.115080
0.480626 0.599150 0.115080
0.551517 0.599150 0.115080
0.621097 0.600758 0.115080
0.694188 0.607015 0.115080
0.778696 0.624352 0.115080
0.855458 0.632552 0.115080
0.927192 0.631455 0.115080
0.991433 0.626003 0.115080
0.994690 0.610881 0.115080
1.053498 0.597504 0.115080
0.121569 0.683054 0.124711
0.114315 0.683054 0.113022
0.179532 0.683054 0.114720
0.256590 0.683054 0.115237
0.337677 0.683053 0.115080
0.414807 0.683053 0.115080
0.490599 0.683053 0.115080
0.562859 0.683053 0.115080
0.632373 0.683053 0.115080
0.701626 0.685180 0.115080
0.777382 0.695748 0.115080
0.857010 0.703666 0.115080
0.927192 0.703989 0.115080
0.991433 0.697806 0.115080
0.994690 0.680546 0.115080
1.053498 0.665631 0.115080
0.121569 0.763517 0.124771
0.114541 0.763517 0.113058
0.179532 0.763517 0.114781
0.258893 0.763517 0.115268
0.341262 0.763517 0.115080
0.419520 0.763517 0.115080
0.497110 0.763517 0.115080
0.570399 0.763517 0.115080
0.640820 0.763517 0.115080
0.708808 0.763517 0.115080
0.776918 0.765461 0.115080
0.856512 0.777991 0.115080
0.927192 0.776618 0.115080
0.991433 0.768835 0.115080
0.994690 0.750514 0.115080
1.053498 0.733965 0.115080
0.121569 0.836043 0.124533
0.115055 0.836043 0.113109
0.181692 0.836043 0.116750
0.259379 0.836043 0.115319
0.341894 0.836043 0.115080
0.421534 0.836043 0.115080
0.498745 0.836043 0.115080
0.572396 0.836043 0.115080
0.643121 0.836043 0.115080
0.711507 0.836043 0.115080
0.778230 0.836043 0.115080
0.844722 0.836998 0.115080
0.930080 0.853557 0.115080
0.992458 0.843490 0.115080
0.994690 0.819927 0.115080
1.053498 0.802113 0.115080
0.121569 0.900721 0.124005
0.115857 0.900722 0.113226
0.180590 0.900721 0.116226
0.258043 0.900722 0.115442
0.337891 0.900721 0.115080
0.419331 0.900721 0.115080
0.495817 0.900721 0.115080
0.569268 0.900721 0.115080
0.639837 0.900721 0.115080
0.707951 0.900721 0.115080
0.774067 0.900721 0.115080
0.840309 0.900721 0.115080
0.908101 0.903673 0.115080
0.997074 0.919822 0.115080
0.995606 0.892162 0.115080
1.053498 0.871095 0.115080
0.121569 0.940814 0.123340
0.116835 0.940814 0.113383
0.178461 0.940814 0.116671
0.253722 0.940814 0.115597
0.336417 0.940814 0.115080
0.411771 0.940814 0.115080
0.488395 0.940814 0.115080
0.560917 0.940814 0.115080
0.630705 0.940814 0.115080
0.698011 0.940814 0.115080
0.763083 0.940814 0.115080
0.826674 0.939855 0.115080
0.891104 0.941009 0.115080
0.972504 0.946541 0.115080
0.998633 0.954347 0.115080
1.053635 0.933193 0.115080
0.120414 1.103524 0.117530
0.116499 1.103524 0.105805
0.179486 1.103524 0.107612
0.257605 1.103524 0.105805
0.335596 1.103524 0.104211
0.413156 1.103524 0.102033
0.483600 1.103524 0.099912
0.552327 1.103524 0.097757
0.618285 1.103524 0.095980
0.682479 1.103524 0.094664
0.745021 1.103524 0.094916
0.809350 1.103524 0.094664
0.874155 1.103509 0.095369
0.947813 1.103537 0.096226
0.994055 1.104090 0.097495
1.053750 1.105217 0.098343
0.108453 -0.505213 0.147976
0.116734 -0.505204 0.148349
0.159089 -0.505200 0.142502
0.213441 -0.505200 0.132971
0.278489 -0.505200 0.128924
0.352534 -0.505200 0.127613
0.436278 -0.505200 0.131131
0.523983 -0.505200 0.135345
0.614925 -0.505200 0.140418
0.704258 -0.505200 0.144978
0.788177 -0.505200 0.149196
0.867262 -0.505200 0.150454
0.935860 -0.505200 0.150866
0.998093 -0.505200 0.149252
0.996737 -0.505200 0.146494
1.053635 -0.505200 0.143778
0.120282 0.109479 0.144277
0.125985 0.108181 0.144277
0.164202 0.108378 0.142075
0.219095 0.108181 0.140978
0.283855 0.108259 0.142107
0.356577 0.108259 0.141936
0.437410 0.108259 0.145388
0.521983 0.108259 0.148519
0.609733 0.108259 0.151957
0.696194 0.108259 0.154943
0.779194 0.108259 0.157408
0.855520 0.108259 0.159295
0.927192 0.108259 0.157625
0.991433 0.108259 0.156770
0.994690 0.108259 0.155446
1.053498 0.108259 0.153489
0.121569 0.136378 0.143588
0.127482 0.136565 0.143781
0.164372 0.136378 0.143588
0.219482 0.136565 0.141583
0.283855 0.135007 0.140580
0.356577 0.133259 0.139483
0.437410 0.131706 0.138384
0.521983 0.129952 0.137284
0.609733 0.128487 0.136554
0.696194 0.127472 0.136234
0.779194 0.127378 0.136554
0.855519 0.127472 0.137330
0.927192 0.127900 0.137726
0.991433 0.128663 0.137027
0.994690 0.130119 0.138823
1.053498 0.130888 0.139224
0.121569 0.180016 0.145576
0.127482 0.180016 0.145663
0.162216 0.180016 0.143380
0.218430 0.178924 0.144575
0.282806 0.180860 0.144277
0.356577 0.183539 0.144277
0.437410 0.186266 0.144277
0.521983 0.189992 0.144277
0.609733 0.194031 0.144277
0.696194 0.197430 0.144277
0.779194 0.200449 0.144277
0.855520 0.200662 0.144277
0.927192 0.201755 0.144277
0.991433 0.200373 0.144277
0.994690 0.197479 0.144277
1.053498 0.195022 0.144277
0.121569 0.232678 0.147234
0.127482 0.232678 0.147424
0.160028 0.232678 0.143949
0.224793 0.232678 0.144137
0.281779 0.228005 0.144277
0.356577 0.234432 0.144277
0.437410 0.241755 0.144277
0.521983 0.249199 0.144277
0.609733 0.257174 0.144277
0.696194 0.263883 0.144277
0.779194 0.268702 0.144277
0.855520 0.271208 0.144277
0.927192 0.271318 0.144277
0.991433 0.268765 0.144277
0.994690 0.263989 0.144277
1.053498 0.259340 0.144277
0.121569 0.293025 0.149328
0.127482 0.293025 0.149482
0.156772 0.293025 0.141657
0.225855 0.293025 0.144008
0.294777 0.293187 0.144277
0.353520 0.286195 0.144277
0.436890 0.299436 0.144277
0.521983 0.311089 0.144277
0.609733 0.322498 0.144277
0.696194 0.332019 0.144277
0.779194 0.338974 0.144277
0.855520 0.342319 0.144277
0.927192 0.342443 0.144277
0.991433 0.340011 0.144277
0.994690 0.332162 0.144277
1.053498 0.325612 0.144277
0.121569 0.360353 0.151782
0.127482 0.360353 0.151744
0.153491 0.360353 0.141926
0.229026 0.360353 0.145176
0.300148 0.360142 0.144277
0.372312 0.358883 0.144277
0.434056 0.355011 0.144277
0.521384 0.373232 0.144277
0.609733 0.388682 0.144277
0.696194 0.400806 0.144277
0.779194 0.410010 0.144277
0.855520 0.413007 0.144277
0.927192 0.415092 0.144277
0.991433 0.409800 0.144277
0.994690 0.400916 0.144277
1.053498 0.392526 0.144277
0.121569 0.434856 0.154531
0.127482 0.434856 0.154201
0.151311 0.434856 0.140291
0.232213 0.434856 0.145455
0.308218 0.435287 0.144277
0.382606 0.434801 0.144277
0.452973 0.434256 0.144277
0.518471 0.432766 0.144277
0.609148 0.454728 0.144277
0.696194 0.470253 0.144277
0.778660 0.480820 0.144277
0.855520 0.486293 0.144277
0.927192 0.485206 0.144277
0.991433 0.481178 0.144277
0.994690 0.470177 0.144277
1.053498 0.460116 0.144277
0.121569 0.515854 0.157364
0.127482 0.515854 0.156736
0.151311 0.515854 0.140961
0.236433 0.515854 0.144719
0.316098 0.515854 0.144277
0.392379 0.515266 0.144277
0.466652 0.515854 0.144277
0.536987 0.516259 0.144277
0.606719 0.518732 0.144277
0.695693 0.539348 0.144277
0.779126 0.553516 0.144277
0.856931 0.559201 0.144277
0.927192 0.558745 0.144277
0.991433 0.553907 0.144277
0.994690 0.539883 0.144277
1.053498 0.528106 0.144277
0.121569 0.599150 0.159802
0.127482 0.599150 0.158873
0.150219 0.599150 0.139023
0.240659 0.599150 0.144670
0.322512 0.599150 0.144277
0.401434 0.599150 0.144277
0.477902 0.599150 0.144277
0.549763 0.599150 0.144277
0.620117 0.600776 0.144277
0.694315 0.607547 0.144277
0.778747 0.625342 0.144277
0.855615 0.631100 0.144277
0.927192 0.631303 0.144277
0.991433 0.624863 0.144277
0.994690 0.609710 0.144277
1.053498 0.596316 0.144277
0.121569 0.683054 0.161744
0.127482 0.683054 0.160532
0.149122 0.683054 0.139882
0.244871 0.683054 0.145256
0.329210 0.683054 0.144277
0.410748 0.683054 0.144277
0.487416 0.683054 0.144277
0.560880 0.683054 0.144277
0.631096 0.683054 0.144277
0.700862 0.685154 0.144277
0.778953 0.695748 0.144277
0.856285 0.703641 0.144277
0.927192 0.702920 0.144277
0.991433 0.697902 0.144277
0.994690 0.679525 0.144277
1.053498 0.664708 0.144277
0.121569 0.763517 0.162824
0.127482 0.763517 0.161442
0.150219 0.763517 0.139879
0.245930 0.763517 0.143983
0.331413 0.763517 0.144277
0.415033 0.763517 0.144277
0.493534 0.763517 0.144277
0.568007 0.763517 0.144277
0.639230 0.763517 0.144277
0.707741 0.763517 0.144277
0.777370 0.766469 0.144277
0.858330 0.778999 0.144277
0.927192 0.776745 0.144277
0.991433 0.770103 0.144277
0.994690 0.749624 0.144277
1.053498 0.733369 0.144277
0.121569 0.836043 0.162853
0.127482 0.836043 0.161357
0.151311 0.836043 0.139900
0.245930 0.836043 0.144992
0.334004 0.836043 0.144277
0.416972 0.836043 0.144277
0.495052 0.836043 0.144277
0.569906 0.836043 0.144277
0.641406 0.836043 0.144277
0.710384 0.836043 0.144277
0.777484 0.836043 0.144277
0.847403 0.837942 0.144277
0.930080 0.853218 0.144277
0.992458 0.841121 0.144277
0.994690 0.819658 0.144277
1.053498 0.801670 0.144277
0.121569 0.900721 0.161904
0.127482 0.900722 0.160445
0.153491 0.900721 0.141149
0.246980 0.900722 0.145164
0.331082 0.900721 0.144277
0.414707 0.900721 0.144277
0.492234 0.900721 0.144277
0.566674 0.900721 0.144277
0.638021 0.900721 0.144277
0.706622 0.900721 0.144277
0.774206 0.900721 0.144277
0.838963 0.900721 0.144277
0.905290 0.902468 0.144277
0.997074 0.921464 0.144277
0.995606 0.891960 0.144277
1.053498 0.870770 0.144277
0.121569 0.940814 0.160031
0.127482 0.940814 0.158759
0.154581 0.940814 0.141460
0.243821 0.940814 0.144558
0.328828 0.940814 0.144277
0.407373 0.940814 0.144277
0.485033 0.940814 0.144277
0.558512 0.940814 0.144277
0.628957 0.940814 0.144277
0.696779 0.940814 0.144277
0.762316 0.940814 0.144277
0.826347 0.939855 0.144277
0.890150 0.939993 0.144277
0.972504 0.947456 0.144277
0.998539 0.954250 0.144277
1.053637 0.933228 0.144277
0.121417 1.103524 0.153135
0.126791 1.103524 0.150824
0.155528 1.103524 0.130085
0.244210 1.103524 0.132156
0.327574 1.103524 0.129544
0.406148 1.103524 0.126070
0.479829 1.103524 0.122898
0.549399 1.103524 0.119408
0.616169 1.103524 0.116412
0.680896 1.103524 0.114226
0.743953 1.103524 0.113088
0.807798 1.103524 0.113118
0.873063 1.103523 0.115654
0.947813 1.103523 0.115948
0.993998 1.104067 0.118992
1.053755 1.105233 0.120398
0.097299 -0.505233 0.190713
0.108523 -0.505209 0.191457
0.160896 -0.505195 0.192876
0.216148 -0.505198 0.184996
0.280296 -0.505200 0.181658
0.354119 -0.505200 0.182438
0.437001 -0.505200 0.188124
0.524523 -0.505200 0.195306
0.615308 -0.505200 0.203417
0.704520 -0.505200 0.210497
0.788505 -0.505200 0.216213
0.867513 -0.505200 0.217954
0.936885 -0.505200 0.219008
0.998093 -0.505200 0.216645
0.996755 -0.505200 0.211563
1.053637 -0.505200 0.207058
0.118864 0.110154 0.186705
0.122159 0.107198 0.186705
0.168249 0.107965 0.186705
0.218624 0.108288 0.181312
0.283855 0.108259 0.181701
0.356577 0.108259 0.185779
0.437410 0.108259 0.191368
0.521983 0.108259 0.197577
0.609733 0.108259 0.204254
0.696194 0.108259 0.209946
0.779194 0.108259 0.213853
0.855520 0.108259 0.216325
0.927192 0.108259 0.216088
0.991433 0.108259 0.215595
0.994690 0.108259 0.210751
1.053498 0.108259 0.207058
0.121569 0.139747 0.186705
0.127153 0.139735 0.186705
0.162216 0.136442 0.186705
0.219164 0.136433 0.184545
0.283855 0.136836 0.185264
0.356577 0.136836 0.187512
0.437410 0.136836 0.190649
0.521983 0.136836 0.195036
0.609733 0.136836 0.199744
0.696194 0.136836 0.203792
0.779194 0.136836 0.207229
0.855519 0.136836 0.208068
0.927192 0.136836 0.208274
0.991433 0.136836 0.207716
0.994690 0.136836 0.204003
1.053498 0.136836 0.201315
0.121569 0.178781 0.185286
0.127482 0.179011 0.185496
0.164372 0.179885 0.186370
0.218430 0.180114 0.185496
0.283855 0.180290 0.185063
0.356577 0.178864 0.184203
0.437410 0.177055 0.182892
0.521982 0.175615 0.182030
0.609733 0.174466 0.181452
0.696194 0.173731 0.181191
0.779194 0.173385 0.180361
0.855520 0.173731 0.182279
0.927192 0.172994 0.182452
0.991433 0.175869 0.182855
0.994690 0.176244 0.183508
1.053498 0.176937 0.183941
0.121569 0.232678 0.189240
0.127482 0.232678 0.189302
0.164372 0.232678 0.189240
0.216300 0.232678 0.186069
0.282806 0.230906 0.186705
0.356577 0.235434 0.186705
0.437410 0.239350 0.186705
0.521982 0.243888 0.186705
0.609733 0.248747 0.186705
0.696194 0.252902 0.186705
0.779194 0.255052 0.186705
0.855520 0.257100 0.186705
0.927192 0.257495 0.186705
0.991433 0.256584 0.186705
0.994690 0.252244 0.186705
1.053498 0.249231 0.186705
0.121569 0.293025 0.192414
0.127482 0.293025 0.192434
0.164372 0.293025 0.192414
0.214162 0.293025 0.184915
0.291816 0.292874 0.186705
0.354525 0.289706 0.186705
0.437049 0.299114 0.186705
0.521982 0.308382 0.186705
0.609733 0.317400 0.186705
0.696194 0.325002 0.186705
0.779194 0.328753 0.186705
0.855520 0.333239 0.186705
0.927192 0.332094 0.186705
0.991433 0.329749 0.186705
0.994690 0.323835 0.186705
1.053498 0.318395 0.186705
0.121569 0.360353 0.196566
0.127482 0.360353 0.196511
0.164372 0.360353 0.196566
0.212034 0.360353 0.184694
0.293700 0.360045 0.186705
0.368415 0.360236 0.186705
0.434851 0.356972 0.186705
0.521515 0.372487 0.186705
0.609733 0.385895 0.186705
0.696194 0.396379 0.186705
0.779194 0.403172 0.186705
0.855520 0.406508 0.186705
0.927192 0.406911 0.186705
0.991433 0.403409 0.186705
0.994690 0.394722 0.186705
1.053498 0.387118 0.186705
0.121569 0.434856 0.201447
0.127482 0.434856 0.201263
0.164372 0.434856 0.199318
0.208841 0.434856 0.183022
0.299346 0.435578 0.186705
0.376074 0.435219 0.186705
